SVG-Logos/Frameworks-Languages-IDEs/Web Dev, Animation/logo-svelte.svg

<svg width="34" height="40" viewBox="0 0 34 40" fill="none" xmlns="http://www.w3.org/2000/svg">
<path d="M31.12 5.29152C27.4259 -0.0292853 20.0717 -1.58825 14.7848 1.76691L5.46489 7.73164C2.92311 9.32449 1.1608 11.9341 0.652443 14.8825C0.211866 17.3565 0.584662 19.8983 1.77083 22.1012C0.957457 23.3213 0.415209 24.6769 0.177976 26.1003C-0.364272 29.1165 0.347428 32.2345 2.10973 34.7085C5.83769 40.0293 13.158 41.5883 18.445 38.2331L27.7648 32.3023C30.3066 30.7094 32.0689 28.0998 32.5773 25.1514C33.0179 22.6773 32.6451 20.1356 31.4589 17.9327C32.2723 16.7126 32.8145 15.357 33.0518 13.9336C33.6279 10.8835 32.9162 7.76553 31.12 5.29152Z" fill="#FF3E00"/>
<path d="M13.8692 35.2168C10.853 35.9962 7.70115 34.8101 5.93884 32.2683C4.85434 30.7771 4.44766 28.9131 4.75267 27.083C4.82045 26.778 4.88824 26.5069 4.95602 26.2019L5.12547 25.6596L5.59994 25.9985C6.71832 26.8119 7.93838 27.4219 9.26011 27.8286L9.59901 27.9303L9.56512 28.2692C9.53123 28.7437 9.6668 29.252 9.93792 29.6587C10.4802 30.4382 11.4291 30.811 12.3441 30.5738C12.5475 30.506 12.7508 30.4382 12.9203 30.3365L22.2063 24.4057C22.6807 24.1007 22.9858 23.6601 23.0874 23.1178C23.1891 22.5756 23.0535 21.9995 22.7485 21.5589C22.2063 20.7794 21.2573 20.4405 20.3423 20.6777C20.139 20.7455 19.9356 20.8133 19.7662 20.915L16.2077 23.1856C15.6315 23.5584 14.9876 23.8295 14.3098 23.999C11.2935 24.7785 8.14172 23.5923 6.37942 21.0505C5.32881 19.5593 4.88824 17.6954 5.22714 15.8653C5.53215 14.103 6.61665 12.5101 8.14172 11.5612L17.4616 5.63034C18.0377 5.25755 18.6817 4.98643 19.3595 4.78308C22.3757 4.0036 25.5275 5.18977 27.2899 7.73156C28.3744 9.22274 28.781 11.0867 28.476 12.9168C28.4082 13.2218 28.3405 13.4929 28.2388 13.798L28.0693 14.3402L27.5949 14.0013C26.4765 13.1879 25.2564 12.5779 23.9347 12.1712L23.5958 12.0695L23.6297 11.7306C23.6636 11.2562 23.528 10.7478 23.2569 10.3411C22.7146 9.56164 21.7657 9.22274 20.8507 9.45997C20.6473 9.52775 20.444 9.59553 20.2745 9.69721L10.9885 15.628C10.5141 15.9331 10.209 16.3736 10.1074 16.9159C10.0057 17.4581 10.1413 18.0343 10.4463 18.4748C10.9885 19.2543 11.9375 19.5932 12.8525 19.356C13.0558 19.2882 13.2592 19.2204 13.4286 19.1188L16.9871 16.8481C17.5633 16.4753 18.2072 16.2042 18.885 16.0008C21.9013 15.2214 25.0531 16.4075 26.8154 18.9493C27.8999 20.4405 28.3066 22.3045 28.0016 24.1346C27.6965 25.8969 26.612 27.4897 25.087 28.4387L15.7671 34.3695C15.1909 34.7423 14.547 35.0134 13.8692 35.2168Z" fill="white"/>
</svg>

<svg xmlns="http://www.w3.org/2000/svg" fill="none" viewBox="0 0 34 40"><path fill="#FF3E00" d="M31.12 5.292C27.426-.03 20.072-1.588 14.785 1.767l-9.32 5.965a10.592 10.592 0 0 0-4.813 7.15c-.44 2.475-.067 5.016 1.119 7.22A10.232 10.232 0 0 0 .178 26.1a11.403 11.403 0 0 0 1.932 8.608c3.728 5.321 11.048 6.88 16.335 3.525l9.32-5.93a10.592 10.592 0 0 0 4.812-7.152c.44-2.474.068-5.015-1.118-7.218a10.233 10.233 0 0 0 1.593-4 11.167 11.167 0 0 0-1.932-8.641Z"/><path fill="#fff" d="M13.87 35.217a7.387 7.387 0 0 1-7.931-2.949c-1.085-1.49-1.491-3.355-1.186-5.185.067-.305.135-.576.203-.881l.17-.542.474.338a12.361 12.361 0 0 0 3.66 1.83l.339.102-.034.34c-.034.474.102.982.373 1.389.542.78 1.491 1.152 2.406.915.204-.068.407-.136.576-.238l9.286-5.93a1.92 1.92 0 0 0 .881-1.288 2.103 2.103 0 0 0-.338-1.56 2.224 2.224 0 0 0-2.407-.88c-.203.067-.406.135-.576.237l-3.558 2.27A6.306 6.306 0 0 1 14.31 24a7.387 7.387 0 0 1-7.93-2.948 6.845 6.845 0 0 1-1.153-5.186 6.417 6.417 0 0 1 2.915-4.304l9.32-5.93c.576-.373 1.22-.645 1.898-.848a7.387 7.387 0 0 1 7.93 2.949c1.084 1.49 1.491 3.355 1.186 5.185a8.492 8.492 0 0 1-.237.881l-.17.542-.474-.339a12.362 12.362 0 0 0-3.66-1.83l-.34-.101.035-.34a2.269 2.269 0 0 0-.373-1.389 2.224 2.224 0 0 0-2.406-.881 2.932 2.932 0 0 0-.576.237l-9.286 5.931a1.92 1.92 0 0 0-.882 1.288 2.103 2.103 0 0 0 .34 1.559 2.224 2.224 0 0 0 2.405.881c.204-.068.407-.136.577-.237l3.558-2.27c.576-.374 1.22-.645 1.898-.848a7.387 7.387 0 0 1 7.93 2.948c1.085 1.491 1.492 3.355 1.187 5.186a6.418 6.418 0 0 1-2.915 4.304l-9.32 5.93c-.576.373-1.22.644-1.898.848Z"/></svg>
